X:1
T:Onward, Soldiers, 88.85 D
T:Onward, Soldiers, 88.85 D
T: Ira David Sankey, 1895
T:Public Domain, Courtesy of the Cyber Hymnal™
C:Ira David Sankey, 1895
Z:Public Domain,
Z:Courtesy of the Cyber Hymnal™
%%score 1 ( 2 3 )
L:1/8
Q:1/4=112
M:4/4
K:G
V:1 treble 
V:2 bass 
V:3 bass 
V:1
 [DB]2 [DB]2 [DB]2 [DB]2 | [DB]2 [Dc]>[DB] [DA]4 | [CA]2 [CA]2 [CA]2 [CA]2 | %3
 [CA]2 [DB]>[CA] [B,G]4 | [CE]2 [CE]2 [EG]2 [CG]2 | [B,D]2 [DG]>[DB] [Gd]4 | %6
 [Fd]2 [Fd]2 [DF]2 [DF]2 | [DG]8 | [Gd]2 [DB]2 [Gd]2 [GB]2 | [Ee]2 [^Ge]>[Ed] [Ec]4 | %10
 [Dc]2 [DA]2 [Dc]2 [DA]2 | [Dd]2 [Fd]>[Dc] [DB]4 | [B,D]2 [DG]2 [DB]2 [=Fd]2 | %13
 [Ed]2 [Ec]>[EA] [CE]4 | [CF]2 [CF]2 [CG]2 [CA]2 | [B,G]8 |] %16
V:2
 G,2 G,2 G,2 G,2 | G,2 [F,A,]>G, [D,F,]4 | [D,F,]2 [D,F,]2 [D,F,]2 [D,F,]2 | %3
 [D,F,]2 [D,F,]>[D,F,] [G,,G,]4 | [C,G,]2 [C,G,]2 [C,G,]2 [E,G,]2 | G,2 [G,B,]>G, [G,B,]4 | %6
 [D,A,]2 [D,A,]2 [D,A,]2 [D,C]2 | [G,,B,]8 | [G,B,]2 G,2 [G,B,]2 [G,D]2 | %9
 [C,C]2 [E,B,]>[^G,B,] A,4 | [D,A,]2 [D,F,]2 [D,A,]2 [D,F,]2 | [B,,G,]2 [D,A,]>[F,A,] G,4 | %12
 G,2 [G,B,]2 G,2 [B,,G,]2 | [C,G,]2 [C,G,]>[C,A,] [C,C]4 | [D,A,]2 [D,A,]2 [D,E,]2 [D,F,]2 | %15
 [G,,G,]8 |] %16
V:3
 G,2 G,2 G,2 G,2 | G,2 G,/ x11/2 | x8 | x8 | x8 | G,2 G,/ x11/2 | x8 | x8 | x2 G,2 x4 | x4 A,4 | %10
 x8 | x4 G,4 | G,2 G,2 x4 | x8 | x8 | x8 |] %16

